icons-rebrand/svg/apps-regular.svg

<svg xmlns="http://www.w3.org/2000/svg" width="32" height="32" viewBox="0 0 32 32"><path d="M12 3.25H6C5.2709 3.25079 4.57189 3.54078 4.05633 4.05633C3.54078 4.57189 3.25079 5.2709 3.25 6V12C3.25079 12.7291 3.54078 13.4281 4.05633 13.9437C4.57189 14.4592 5.2709 14.7492 6 14.75H12C12.7292 14.7495 13.4283 14.4596 13.944 13.944C14.4596 13.4283 14.7495 12.7292 14.75 12V6C14.7492 5.2709 14.4592 4.57189 13.9437 4.05633C13.4281 3.54078 12.7291 3.25079 12 3.25ZM13.25 12C13.25 12.3315 13.1183 12.6495 12.8839 12.8839C12.6495 13.1183 12.3315 13.25 12 13.25H6C5.66848 13.25 5.35054 13.1183 5.11612 12.8839C4.8817 12.6495 4.75 12.3315 4.75 12V6C4.75026 5.66856 4.88205 5.35077 5.11641 5.11641C5.35077 4.88205 5.66856 4.75026 6 4.75H12C12.3314 4.75026 12.6492 4.88205 12.8836 5.11641C13.118 5.35077 13.2497 5.66856 13.25 6V12ZM26 3.25H20C19.2709 3.25079 18.5719 3.54078 18.0563 4.05633C17.5408 4.57189 17.2508 5.2709 17.25 6V12C17.2505 12.7292 17.5404 13.4283 18.056 13.944C18.5717 14.4596 19.2708 14.7495 20 14.75H26C26.7292 14.7495 27.4283 14.4596 27.944 13.944C28.4596 13.4283 28.7495 12.7292 28.75 12V6C28.7492 5.2709 28.4592 4.57189 27.9437 4.05633C27.4281 3.54078 26.7291 3.25079 26 3.25ZM27.25 12C27.25 12.3315 27.1183 12.6495 26.8839 12.8839C26.6495 13.1183 26.3315 13.25 26 13.25H20C19.6685 13.25 19.3505 13.1183 19.1161 12.8839C18.8817 12.6495 18.75 12.3315 18.75 12V6C18.75 5.66848 18.8817 5.35054 19.1161 5.11612C19.3505 4.8817 19.6685 4.75 20 4.75H26C26.3314 4.75026 26.6492 4.88205 26.8836 5.11641C27.118 5.35077 27.2497 5.66856 27.25 6V12ZM23 17.25C21.8628 17.25 20.7511 17.5872 19.8055 18.219C18.8599 18.8509 18.1229 19.7489 17.6877 20.7996C17.2525 21.8502 17.1386 23.0064 17.3605 24.1218C17.5824 25.2372 18.13 26.2617 18.9341 27.0659C19.7383 27.87 20.7628 28.4176 21.8782 28.6395C22.9936 28.8614 24.1498 28.7475 25.2004 28.3123C26.2511 27.8771 27.1491 27.1401 27.781 26.1945C28.4128 25.2489 28.75 24.1372 28.75 23C28.7484 21.4755 28.1421 20.0139 27.0641 18.9359C25.9861 17.8579 24.5245 17.2516 23 17.25ZM23 27.25C21.8728 27.25 20.7918 26.8022 19.9948 26.0052C19.1978 25.2082 18.75 24.1272 18.75 23C18.75 21.8728 19.1978 20.7918 19.9948 19.9948C20.7918 19.1978 21.8728 18.75 23 18.75C24.1272 18.75 25.2082 19.1978 26.0052 19.9948C26.8022 20.7918 27.25 21.8728 27.25 23C27.25 24.1272 26.8022 25.2082 26.0052 26.0052C25.2082 26.8022 24.1272 27.25 23 27.25ZM12 17.25H6C5.2709 17.2508 4.57189 17.5408 4.05633 18.0563C3.54078 18.5719 3.25079 19.2709 3.25 20V26C3.25079 26.7291 3.54078 27.4281 4.05633 27.9437C4.57189 28.4592 5.2709 28.7492 6 28.75H12C12.7292 28.7495 13.4283 28.4596 13.944 27.944C14.4596 27.4283 14.7495 26.7292 14.75 26V20C14.7495 19.2708 14.4596 18.5717 13.944 18.056C13.4283 17.5404 12.7292 17.2505 12 17.25ZM13.25 26C13.25 26.3315 13.1183 26.6495 12.8839 26.8839C12.6495 27.1183 12.3315 27.25 12 27.25H6C5.66848 27.25 5.35054 27.1183 5.11612 26.8839C4.8817 26.6495 4.75 26.3315 4.75 26V20C4.75026 19.6686 4.88205 19.3508 5.11641 19.1164C5.35077 18.882 5.66856 18.7503 6 18.75H12C12.3314 18.7505 12.649 18.8824 12.8833 19.1167C13.1176 19.351 13.2495 19.6686 13.25 20V26Z"/></svg>

<svg width="32" height="32" fill="none" xmlns="http://www.w3.org/2000/svg"><path d="M12 17.25H6c-.73 0-1.43.29-1.94.81-.52.51-.81 1.21-.81 1.94v6c0 .73.29 1.43.81 1.94.52.52 1.21.81 1.94.81h6c.73 0 1.43-.29 1.94-.81.52-.52.81-1.21.81-1.94v-6c0-.73-.29-1.43-.81-1.94-.51-.52-1.21-.81-1.94-.81zM13.25 26c0 .33-.13.65-.37.88-.23.24-.55.37-.88.37H6c-.33 0-.65-.13-.88-.37-.24-.23-.37-.55-.37-.88v-6c0-.33.13-.65.37-.88.23-.23.55-.37.88-.37h6c.33 0 .65.13.88.37.24.23.37.55.37.88v6zM26 17.25h-6c-.73 0-1.43.29-1.94.81-.52.51-.81 1.21-.81 1.94v6c0 .73.29 1.43.81 1.94.52.52 1.21.81 1.94.81h6c.73 0 1.43-.29 1.94-.81.52-.52.81-1.21.81-1.94v-6c0-.73-.29-1.43-.81-1.94-.51-.52-1.21-.81-1.94-.81zM27.25 26c0 .33-.13.65-.37.88-.23.24-.55.37-.88.37h-6c-.33 0-.65-.13-.88-.37-.23-.23-.37-.55-.37-.88v-6c0-.33.13-.65.37-.88.23-.23.55-.37.88-.37h6c.33 0 .65.13.88.37.24.23.37.55.37.88v6zM12 3.25H6c-.73 0-1.43.29-1.94.81-.52.51-.81 1.21-.81 1.94v6c0 .73.29 1.43.81 1.94.52.52 1.21.81 1.94.81h6c.73 0 1.43-.29 1.94-.81.52-.52.81-1.21.81-1.94V6c0-.73-.29-1.43-.81-1.94-.51-.52-1.21-.81-1.94-.81zM13.25 12c0 .33-.13.65-.37.88-.23.24-.55.37-.88.37H6c-.33 0-.65-.13-.88-.37-.24-.23-.37-.55-.37-.88V6c0-.33.13-.65.37-.88.23-.24.55-.37.88-.37h6c.33 0 .65.13.88.37.24.23.37.55.37.88v6zM18.75 9.75h3.5v3.5c0 .41.34.75.75.75s.75-.34.75-.75v-3.5h3.5c.41 0 .75-.34.75-.75s-.34-.75-.75-.75h-3.5v-3.5c0-.41-.34-.75-.75-.75s-.75.34-.75.75v3.5h-3.5c-.41 0-.75.34-.75.75s.34.75.75.75z" fill="#0F0F0F"/></svg>
